X: 67
T: Msza Święta - Gloria
C: Józef Stefani
%%abc-version 2.0
%%abcx-abcm2ps-target-version 5.9.1 (29 Sep 2008)
%%abc-creator hum2abc beta
%%abcx-conversion-date 2021/10/04 07:38:39
%%abc-edited-by Anastazja Marusiak
%%abc-edited-by Kamil Watkowski
%%abcx-initial-encoding-date 2021-08-12
%%humdrum-veritas 2721736004
%%humdrum-veritas-data 3421695422
%%linebreak <none>
%%barnumbers 0
L: 1/8
M: C
N: Derived from pl-kozmzk--mzk-m-26--002_stefani-jozef-msza-swieta-gloria.krn
Q: "Allo. Moderato"
V: 1 clef=tenor
V: 2 clef=tenor
V: 3 clef=bass
V: 4 clef=treble
V: 5 clef=bass
K: F
[V:1] z8 | 
[V:2] z8 | 
[V:3] z8 | 
[V:4] [f6F6][f2F2]- | 
[V:5] [F,6F,,6][F,2F,,2]- | 
[V:1] z4z2F3/ =E/ | 
[V:2] z4z2F3/ =E/ | 
[V:3] z4z2F,3/ E,/ | 
[V:4] [f6F6][f3/F3/][=e/=E/] | 
[V:5] [F,6F,,6]F,3/=E,/ | 
[V:1] F4C2A,3/ C/ | 
[V:2] F4C2A,3/ F,/ | 
[V:3] F,4C,2F,3/ E,/ | 
[V:4] [f4F4][c2C2][A3/F3/][c/G/] | 
[V:5] F,4C,2[F,3/F,,3/][E,/E,,/] | 
[V:1] F4D4 | 
[V:2] A,4=B,4 | 
[V:3] D,4G,4 | 
[V:4] [f4A4F4][d4=B4G4-] | 
[V:5] [D,4D,,4][G,4G,,4] | 
[V:1] E2E> E GF E D | 
[V:2] C2G,> G, _B,A, G, F, | 
[V:3] C,2C,> C,C,3C, | 
[V:4] e4[g_B][fA][eG][dF] & [c2G2]G2x4 | 
[V:5] C,CC,C C,CC,C | 
[V:1] C2!trill!D2E2G3/ ^F/ | 
[V:2] E,2G,2G,2G,3/ ^F,/ | 
[V:3] C,2=B,,2C,2F,3/ ^F,/ | 
[V:4] [cE]GdG-[e2G2][g3/G3/][^f/^F/] | 
[V:5] C,G,=B,G,C2G,3/^F,/ | 
[V:1] G4=F2E3/ D/ | 
[V:2] G,4=F,2E,3/ D,/ | 
[V:3] G,4=F,2E,3/ D,/ | 
[V:4] [g4G4][=f2=F2][e3/E3/][d/D/] | 
[V:5] G,4=F,2E,3/D,/ | 
[V:1] E4C4 | 
[V:2] E,4C4 | 
[V:3] E,4C,4 | 
[V:4] [e4E4][c4C4] | 
[V:5] E,4C,4 | 
[V:1] D2D> D CF D E | 
[V:2] B,2B,> B,A,2B, G, | 
[V:3] B,,2B,,> B,,C,2C, C, | 
[V:4] [d4B4]cfde & x4A2BG | 
[V:5] B,,4C,2-[C,2C,,2] | 
[V:1] F2F zz4 | 
[V:2] A,2A, zz4 | 
[V:3] F,2F, zz4 | 
[V:4] [f2A2F2][f2A2F2][_e2B2_E2][c2F2] | 
[V:5] [F,4F,,4][G,2G,,2][A,2A,,2] | 
[V:1] D2>D2_E2D2 | 
[V:2] B,2>A,2G,2F,2 | 
[V:3] B,,2>B,,2B,,2B,,2 | 
[V:4] d4e2d2 & F4_E2F2 | 
[V:5] B,2>A,2G,2F,2 & B,,8 | 
[V:1] C2>D2B,2F,2 | 
[V:2] _E,2>F,2D,2D,2 | 
[V:3] B,,2>B,,2B,,2B,,2 | 
[V:4] c2>d2B2F2 & _E2>F2D4 | 
[V:5] _E,2>F,2F,4 & B,,8 | 
[V:1] F,2B,> DF2D3/ B,/ | 
[V:2] F,2B,> DF2D3/ B,/ | 
[V:3] F,2B,> DF,2D3/ B,/ | 
[V:4] F2B>df2d3/B/ | 
[V:5] F,2B,>DF2D3/B,/ | 
[V:1] C4C2^C2 | 
[V:2] B,2A,G,A,2A,2 | 
[V:3] F,4F,2F,2 | 
[V:4] c6^c2 & B2AGA2-A2 | 
[V:5] F,6[F,2F,,2] | 
[V:1] D2>D2 F_ED2 | 
[V:2] B,2>A,2 G,_G,F,2 | 
[V:3] B,,2>B,,2B,,2B,,2 | 
[V:4] d4f_ed2 & B2>A2 G_GF2 | 
[V:5] F,4_E,2F,2 & B,,8 | 
[V:1] C2>D2C2B,2 | 
[V:2] _E,2>F,2E,2D,2 | 
[V:3] B,,2>B,,2B,,2B,,2 | 
[V:4] c2>d2c2B2 & _E2>F2E2D2 | 
[V:5] F,4G,A,B,2 & B,,8 | 
[V:1] G,=B, C _ED2C3/ F/ | 
[V:2] _E,F, E, G,B,2B,3/ A,/ | 
[V:3] _E,D, C, C,F,2F,3/ F,/ | 
[V:4] G_Bc_ed2c3/f/ & _EF EGB2B3/A/ | 
[V:5] [B,E,][G,-D,]G,2[D2B,2F,2-][C2F,2] & x2C,2x4 | 
[V:1] B,4B,2F3/ =E/ | 
[V:2] B,4B,2F3/ E/ | 
[V:3] B,4B,,2F,3/ E,/ | 
[V:4] BBFdB2[f3/F3/][=e/=E/] | 
[V:5] B,B,F,D,B,,2F,3/E,/ | 
[V:1] F4C2A,3/ C/ | 
[V:2] F4C2A,3/ G,/ | 
[V:3] F,4C,2F,3/ E,/ | 
[V:4] [f4F4][c2C2][A3/F3/][c/G/] | 
[V:5] F,4C,2[F,3/F,,3/][E,/E,,/] | 
[V:1] F4D4 | 
[V:2] A,4=B,4 | 
[V:3] D,4G,4 | 
[V:4] [f4A4F4][d4=B4G4] | 
[V:5] [D,4D,,4][G,4G,,4] | 
[V:1] E2E> E GF E D | 
[V:2] C2G,> G, _B,A, G, F, | 
[V:3] C,2C,> C,C,2C, C, | 
[V:4] e4gfed & [c2G2]G2_BAGF | 
[V:5] C,CC,C C,CC,C | 
[V:1] C2!trill!D2E2G3/ ^F/ | 
[V:2] E,2G,2G,2G,3/ ^F,/ | 
[V:3] C,2=B,,2C,2G,3/ ^F,/ | 
[V:4] [cE]GdG[e2G2][g3/G3/][^f/^F/] | 
[V:5] C,G,=B,G,C2G,3/^F,/ | 
[V:1] G4=F2E3/ D/ | 
[V:2] G,4=F,2E,3/ D,/ | 
[V:3] G,4=F,2E,3/ D,/ | 
[V:4] [g4G4][=f2=F2][e3/E3/][d/D/] | 
[V:5] G,4=F,2E,3/D,/ | 
[V:1] E4C4 | 
[V:2] E,4C4 | 
[V:3] E,4C,4 | 
[V:4] [e4E4][c4C4] | 
[V:5] E,4C,4 | 
[V:1] D2D> D CF D E | 
[V:2] B,2B,> B,A,2B, G, | 
[V:3] B,,2B,,> B,,C,2C, C, | 
[V:4] [d4B4]cfde & x4A2BG | 
[V:5] B,,4C,2-[C,2C,,2] | 
[V:1] F4F2z2 | 
[V:2] A,4A,2z2 | 
[V:3] F,4F,2z2 | 
[V:4] [f6A6F6]_e2 | 
[V:5] [F,8F,,8]- | 
[V:1] z8 | 
[V:2] z8 | 
[V:3] z8 | 
[V:4] [d4B4][B4G4] & F8 | 
[V:5] [F,8F,,8] | 
[V:1] z8 | 
[V:2] z8 | 
[V:3] z8 | 
[V:4] [c6A6]A2 & F6-F2 | 
[V:5] [F,6F,,6][_E2C2F,2] | 
[V:1] z8 | 
[V:2] z8 | 
[V:3] z8 | 
[V:4] c4[d4B4] & F8 | 
[V:5] D4B,4 & F,8 | 
[V:1] z8 |]  
[V:2] z8 |]  
[V:3] z8 |]  
[V:4] [f8A8F8] |]  
[V:5] [C8F,8] |]  


